X:1
T:Title
%%score { 1 | 2 }
L:1/8
M:4/4
K:A
V:1 treble nm="Grand Piano"
V:2 bass 
V:1
 z4 z2[Q:1/4=100] C>E | A>G A>B A2 C>E | A>G A>B A2 E>A | c>=c ^c>d e2 A>c | %4
 .[GB]2 .[Ge]2 .[Ge]2 C>E |[M:3/4] A>G A>B A2 |[M:1/4] C>E |[M:4/4] A>G A>B A2 E>A | %8
 c>=c ^c>d e2 A>c |[M:3/4] .[DGB]2 .[CEA]2 .[CEA]2 |[M:4/4] .E2 .E2 .E2 .E2 | .E2 .G2 B<B z2 | %12
 .[A,CE]2 .[CE]2 .[A,CE]2 .[CE]2 | .[CE]2 .[CA]2 [Ec]<[Ec] z2 | .[DF]2 .[DF]2 .[Fd]2 .[DF]2 | %15
 .[CE]2 .E2 .[Ec]2 .E2 | .E2 .G2 .B2 .e2 |[M:3/4] [CE]<[CA]- [CA]2 z2 |] %18
V:2
 z4 z2 C,>E, | A,>[G,B,E] [A,CE]>[B,D] [A,CE]2 C,>E, | %2
 A,>[K:treble][G,B,E] [A,CE]>[B,D] [A,CE]2 [A,C]>[A,CE] | %3
 [A,EA]>[A,^DA] [A,EA]>[A,=DA] [A,CA]2 [A,CE]>[A,EA] | .[E,E]2 .[E,B,]2 .[E,B,]2 C,>E, | %5
[M:3/4] A,>[G,B,E] [A,CE]>[B,D] [A,CE]2 |[M:1/4] C,>E, | %7
[M:4/4] A,>[K:treble][G,B,E] [A,CE]>[B,D] [A,CE]2 [A,C]>[A,CE] | %8
 [A,EA]>[A,^DA] [A,EA]>[A,=DA] [A,CA]2 [A,CE]>[A,EA] |[M:3/4][K:bass] .E,2 .A,,2 .A,,2 | %10
[M:4/4] .[E,B,D]2 .[G,B,D]2 .[E,B,D]2 .[G,B,D]2 | .[E,B,D]2 .[E,B,D]2 [E,G,D]<[E,G,D] z2 | %12
 .A,,2 .A,2 .A,,2 .A,2 | .[A,,A,]2 .[A,,A,]2 [A,,A,]<[A,,A,] z2 | %14
 .[D,A,]2 .[F,A,]2 .[D,A,]2 .[F,A,]2 | .[A,,A,]2 .[A,C]2 .[A,,A,]2 .[A,C]2 | %16
 .[E,G,D]2 .[E,B,D]2 .[E,G,D]2 .[E,G,D]2 |[M:3/4] [A,,A,]<[A,,A,]- [A,,A,]2 z2 |] %18

